{ "compressionlevel":-1,
 "editorsettings":
    {
     "export":
        {
         "format":"csv",
         "target":"\u043c\u0438\u0440.csv"
        }
    },
 "height":10,
 "infinite":false,
 "layers":[
        {
         "data":[0, 0, 0, 0, 0, 0, 0, 0, 0, 0,
            0, 0, 0, 0, 0, 0, 0, 0, 0, 0,
            0, 0, 0, 0, 0, 0, 0, 0, 0, 183,
            0, 0, 0, 0, 0, 0, 0, 0, 0, 183,
            0, 0, 0, 0, 0, 0, 0, 0, 0, 183,
            0, 0, 0, 0, 0, 0, 0, 0, 0, 183,
            0, 0, 0, 0, 0, 0, 0, 0, 0, 0,
            0, 0, 0, 0, 0, 0, 0, 0, 0, 0,
            0, 0, 0, 0, 0, 0, 0, 0, 0, 0,
            0, 0, 0, 0, 0, 0, 0, 0, 0, 0],
         "height":10,
         "id":4,
         "name":"\u0432\u043e\u0434\u0430",
         "opacity":1,
         "type":"tilelayer",
         "visible":true,
         "width":10,
         "x":0,
         "y":0
        }, 
        {
         "data":[1, 2, 2, 2, 2, 2, 2, 2, 2, 3,
            10, 11, 11, 11, 11, 11, 11, 11, 11, 26,
            10, 11, 11, 11, 11, 11, 11, 11, 17, 0,
            10, 11, 11, 11, 11, 11, 11, 11, 17, 0,
            10, 11, 11, 11, 11, 11, 11, 11, 17, 0,
            10, 25, 11, 11, 11, 11, 11, 11, 17, 0,
            17, 183, 15, 11, 11, 11, 11, 11, 11, 8,
            17, 183, 15, 11, 11, 11, 11, 11, 11, 12,
            19, 34, 20, 20, 20, 20, 20, 20, 20, 21,
            42, 43, 43, 43, 43, 43, 43, 43, 43, 44],
         "height":10,
         "id":1,
         "name":"\u0421\u043b\u043e\u0439 \u0442\u0430\u0439\u043b\u043e\u0432 1",
         "opacity":1,
         "type":"tilelayer",
         "visible":true,
         "width":10,
         "x":0,
         "y":0
        }, 
        {
         "data":[0, 0, 0, 0, 0, 0, 0, 0, 0, 0,
            0, 0, 0, 0, 0, 0, 0, 0, 0, 0,
            0, 0, 0, 0, 184, 185, 0, 186, 187, 0,
            0, 0, 0, 0, 208, 209, 0, 210, 211, 0,
            186, 187, 0, 0, 0, 0, 0, 0, 0, 0,
            210, 211, 0, 0, 0, 0, 0, 0, 0, 0,
            0, 0, 0, 0, 0, 0, 0, 0, 0, 0,
            0, 0, 0, 0, 0, 0, 0, 0, 0, 0,
            0, 0, 0, 0, 0, 0, 0, 0, 0, 0,
            0, 0, 0, 0, 0, 0, 0, 0, 0, 0],
         "height":10,
         "id":5,
         "name":"\u0436\u0438\u0432\u043e\u0442\u043d\u044b\u0435",
         "opacity":1,
         "type":"tilelayer",
         "visible":true,
         "width":10,
         "x":0,
         "y":0
        }, 
        {
         "data":[0, 0, 0, 0, 0, 0, 79, 80, 81, 0,
            0, 0, 56, 0, 0, 0, 103, 104, 105, 0,
            0, 79, 80, 81, 0, 0, 127, 128, 129, 0,
            0, 103, 104, 105, 0, 0, 0, 56, 0, 0,
            0, 127, 128, 129, 56, 0, 79, 80, 81, 0,
            0, 0, 0, 79, 80, 81, 103, 104, 105, 0,
            0, 0, 0, 103, 104, 105, 127, 128, 129, 0,
            0, 0, 0, 127, 128, 129, 0, 0, 0, 0,
            0, 0, 0, 0, 0, 0, 0, 0, 0, 0,
            0, 0, 0, 0, 0, 0, 0, 0, 0, 0],
         "height":10,
         "id":2,
         "name":"\u0434\u0435\u0440\u0435\u0432\u044c\u044f",
         "opacity":1,
         "type":"tilelayer",
         "visible":true,
         "width":10,
         "x":0,
         "y":0
        }, 
        {
         "data":[0, 0, 0, 151, 152, 0, 0, 0, 0, 0,
            0, 0, 0, 167, 168, 0, 0, 0, 0, 0,
            151, 152, 0, 0, 0, 151, 152, 0, 0, 0,
            167, 168, 0, 0, 0, 167, 168, 0, 0, 0,
            0, 0, 0, 0, 0, 0, 0, 0, 0, 0,
            0, 0, 0, 0, 0, 0, 0, 0, 0, 0,
            0, 0, 0, 0, 0, 0, 0, 0, 0, 0,
            0, 0, 0, 0, 0, 0, 151, 152, 0, 0,
            0, 0, 0, 0, 0, 0, 167, 168, 0, 0,
            0, 0, 0, 0, 0, 0, 0, 0, 0, 0],
         "height":10,
         "id":3,
         "name":"\u043a\u0443\u0441\u0442\u044b",
         "opacity":1,
         "type":"tilelayer",
         "visible":true,
         "width":10,
         "x":0,
         "y":0
        }],
 "nextlayerid":6,
 "nextobjectid":1,
 "orientation":"orthogonal",
 "renderorder":"right-down",
 "tiledversion":"1.11.2",
 "tileheight":64,
 "tilesets":[
        {
         "firstgid":1,
         "source":"\u0442\u0440\u0430\u0432\u0430.tsx"
        }, 
        {
         "firstgid":55,
         "source":"\u0434\u0435\u0440\u0435\u0432\u044c\u044f.tsx"
        }, 
        {
         "firstgid":151,
         "source":"\u043a\u0443\u0441\u0442\u044b.tsx"
        }, 
        {
         "firstgid":183,
         "source":"\u0432\u043e\u0434\u0430.tsx"
        }, 
        {
         "firstgid":184,
         "source":"\u0431\u0430\u0440\u0430\u0448\u043a\u0438.tsx"
        }],
 "tilewidth":64,
 "type":"map",
 "version":"1.10",
 "width":10
}