<?xml version="1.0" encoding="UTF-8"?>
<map version="1.10" tiledversion="1.11.2" orientation="orthogonal" renderorder="right-down" width="30" height="30" tilewidth="32" tileheight="32" infinite="0" nextlayerid="2" nextobjectid="1">
 <tileset firstgid="1" source="MainLev2.0.tsx"/>
 <layer id="1" name="Слой тайлов 1" width="30" height="30">
  <data encoding="csv">
1535,1328,1329,1329,1329,1329,1329,1329,1330,1535,1586,1586,1586,1586,1586,1586,1586,1586,1586,1586,1586,1586,1586,1586,1586,1586,1586,1586,1586,1586,
1378,1431,2148,1431,1431,1638,1690,1690,1693,2207,2207,1686,1686,1686,1686,1686,1686,1686,1686,1686,1686,1686,1686,1686,1686,1686,1686,1686,2291,1586,
1429,1638,1690,1693,1431,1842,1743,1743,1795,2207,2207,1737,1737,1737,1737,1737,1737,1737,1737,1737,1737,1737,1737,1737,1737,1737,1737,1737,2291,1586,
1429,1842,1743,1795,1431,1842,1743,1743,1795,1433,2207,2207,1737,1737,1737,1737,1737,1737,1737,1737,1737,1737,1737,1737,1737,1737,1737,1737,2291,1586,
1429,1842,1743,1795,1431,1893,1743,1743,1795,1433,2207,2207,2207,2207,2207,2207,1737,1737,1737,1737,1737,1737,1737,1737,1737,1737,1737,2291,2291,1586,
1429,1842,1743,1948,2148,1431,1842,1743,1795,1433,1636,2207,2207,2207,2207,2207,2207,1737,1737,1737,1737,1737,1737,1737,1737,1737,1737,2291,2291,1586,
1429,1996,1795,1431,1431,1431,1893,1743,1795,1433,1636,1636,1636,2207,2207,2207,1636,2207,1737,1737,1737,1737,1737,1737,1737,1737,1737,2291,2291,1586,
1429,1893,1948,1431,1431,2148,1431,1893,1948,1433,1737,1636,1636,1636,1636,2207,2207,1636,2207,1737,1737,1737,1737,1737,1737,1737,1737,2291,2291,1586,
1480,1431,1431,2148,1431,1431,1431,2148,1431,1484,1737,1737,1636,1636,1636,1636,2207,2207,2207,2207,1737,1737,1737,1737,1737,1737,1737,2291,2291,1586,
1535,1532,1533,1533,1533,1533,1533,1533,1533,1586,1586,1737,1737,1636,1636,1636,1636,2207,1636,2207,2207,1737,1737,1737,1737,1737,2291,2291,2291,1586,
1586,1586,1586,1586,1586,1586,1586,1586,1586,1586,1586,1737,1737,1636,1636,1636,1636,2207,2207,1737,2207,2207,1737,1737,1737,1737,2291,2291,2291,1586,
1586,1737,1737,1737,1737,1737,1586,1586,1586,1586,1586,1586,1737,1737,1636,1636,1636,1636,2207,2207,1737,2207,2207,2207,1737,1737,2291,2291,2291,1586,
1586,1737,1737,1737,1737,1737,1737,1737,1586,1586,1586,1586,1737,1737,1636,1636,1636,1636,1636,2207,1737,1737,1737,2207,1737,1737,2291,2291,2291,1586,
1586,1737,1737,1737,1737,1737,1737,1737,1737,1586,1586,1586,1737,1737,1737,1636,1636,1636,1636,1636,2207,1737,1737,2207,2207,1737,2291,2291,2291,1586,
1586,1737,1737,1737,1737,1737,1737,1737,1737,1737,2207,2207,1737,1737,1737,1737,1636,1636,1636,1636,2207,1737,1737,1737,2207,1737,2291,2291,2291,1586,
1586,2207,1737,1737,1737,1737,1737,1737,1737,1737,1737,2207,2207,2207,1737,1737,1737,1737,1636,1636,2207,1737,1737,1737,2207,2207,2291,2291,2291,1586,
1586,2207,2207,1737,1737,1737,1737,1737,1737,1737,1737,1737,1737,2207,2207,1737,1737,1737,1737,1737,1737,2207,1737,1737,1737,2207,2291,2291,2291,1586,
1586,1737,2207,1737,1737,1737,1737,1737,1737,1737,1737,1737,1737,1737,2207,1737,1737,1737,1737,1737,1737,2207,1737,1737,1737,1737,2207,2291,2291,1586,
1586,1737,1737,2207,1737,1737,1737,1737,1737,1737,1737,1737,1737,1737,2207,2207,1737,1737,1737,1737,1737,1737,2207,1737,1737,1737,1737,2291,2291,1586,
1586,1737,1737,2207,2207,1737,1737,1737,1737,1737,1737,1737,1737,1737,1737,2207,1737,1737,1737,1737,1737,1737,2207,2207,1737,1737,1737,2291,2291,1586,
1586,1737,1737,1737,2207,2207,1737,1737,1737,1737,1737,1737,1737,1737,1737,1737,2207,1737,1737,1737,1737,1737,1737,2207,2207,1737,1737,2291,2291,1586,
1586,1737,1737,1737,1737,2207,1737,1737,1737,1737,1737,1737,1737,1737,1737,1737,1737,2207,1737,1737,1737,1737,1737,1737,2207,2207,1737,2291,2291,1586,
1586,1737,1737,1737,1737,2207,2207,1737,1737,1737,1737,1737,1737,1737,1737,1737,1737,2207,2207,1737,1737,1737,1737,1737,1737,2207,2207,2291,2291,1586,
1586,1737,1737,1737,1737,1737,2207,2207,1737,1737,1737,1737,1737,1737,1737,1737,1737,1737,2207,2207,1737,1737,1737,1737,1737,2291,2207,2291,2291,1586,
1586,2207,2207,1737,1737,1737,1737,2207,1737,1737,1737,1737,1737,1737,1737,1737,1737,1737,1737,2207,2207,1737,1737,1737,2291,2291,2291,2207,2291,1586,
1586,2207,2207,2207,1737,1737,1737,2207,2207,1737,1737,1737,1737,1737,1737,1737,1737,1737,1737,1737,2207,2207,1737,2291,2291,1737,2291,2207,2291,1586,
1586,2207,2207,2207,1737,1737,1737,1737,2207,2207,1737,1737,1737,1737,1737,1737,1737,1737,1737,1737,1737,2207,2207,2291,1737,1737,2291,2207,2291,1586,
1586,2207,2207,2207,2207,2207,2207,1737,1737,1737,2207,2207,2207,2207,1737,1737,1737,1737,1737,1737,1737,1737,2207,2291,2207,2207,2291,2207,2291,1586,
1586,2207,2207,2207,2207,2207,2207,2207,2207,2207,2207,2207,2207,2207,2207,2207,2207,1737,1737,1737,2291,2291,2291,2291,2291,2291,2291,2291,2291,1586,
1586,1586,1586,1586,1586,1586,1586,1586,1586,1586,1586,1586,1586,2207,2207,2207,2207,1586,1586,1586,1586,1586,1586,1586,1586,1586,1586,1586,1586,1586
</data>
 </layer>
</map>
